public/img/field-19.svg

<svg width="68" height="73" viewBox="0 0 68 73" fill="none" xmlns="http://www.w3.org/2000/svg">
<path d="M64 64.1551L63.9645 64.125L64 64.0849L63.0984 63.3221L56.7921 57.5215C56.7921 57.5215 56.6807 57.6369 56.4983 57.8075L56.3311 57.9882C54.8926 59.3179 50.2832 63.1666 44.8735 63.2419C44.757 63.2419 44.6404 63.2419 44.5239 63.2419C41.6772 62.9358 38.9015 61.4204 36.0852 58.6154C31.4099 53.9388 26.2078 51.4148 20.6107 51.0786C20.4537 51.0786 20.2966 51.0786 20.1447 51.0786C19.3027 51.0046 18.4568 50.9828 17.612 51.0133C9.18338 51.3546 2.92268 56.9545 0.795251 59.1122C0.339375 59.5186 0.0658488 59.8096 0.00506529 59.8598L0.0354571 59.8899C0.0262093 59.9068 0.0142314 59.9221 0 59.9351L0.901623 60.6878L7.20792 66.4934L7.5017 66.2024L7.66886 66.0217C9.10233 64.687 13.7168 60.8383 19.1266 60.7681C19.2431 60.7681 19.3545 60.7681 19.471 60.7681C22.3228 61.0741 25.0935 62.5895 27.9098 65.3945C32.5901 70.0511 37.782 72.5751 43.3792 72.9213C43.5311 72.9213 43.6882 72.9213 43.8452 72.9213C44.6872 72.9955 45.5331 73.0172 46.3778 72.9865C54.8065 72.6453 61.0672 67.0504 63.1946 64.8927C63.6353 64.4712 63.9139 64.1852 63.9696 64.125" fill="#EFC825"/>
<g clip-path="url(#clip0)">
<path d="M58.6133 21.1029H59.0868C62.0613 21.0837 64.3359 20.2881 65.8476 18.7388C67.3256 17.2239 68.0489 15.0174 67.9974 12.1803C67.985 11.4991 67.4293 10.9534 66.7479 10.9534H58.598C56.9879 8.64981 54.318 7.13898 51.3005 7.13898C49.6227 7.13898 48.0522 7.60623 46.7112 8.4165V5.78862C46.7112 5.09856 46.1517 4.53897 45.4615 4.53897C44.7713 4.53897 44.2119 5.09856 44.2119 5.78862V8.89611L40.8984 7.26707C40.2791 6.96241 39.5303 7.21759 39.2257 7.83716C38.9211 8.45649 39.1764 9.2054 39.7957 9.50994L43.692 11.4255C42.8727 12.7716 42.4005 14.3511 42.4005 16.0388C42.4005 18.9906 43.8462 21.6099 46.0653 23.2299L42.5728 41.6185H12.7475C7.92414 41.6185 4 45.5426 4 50.366V50.7134C4 55.5368 7.92414 59.4609 12.7475 59.4609H51.4529C56.2763 59.4609 60.2005 55.5368 60.2005 50.7134V50.366C60.2005 49.7202 60.128 49.0914 59.9946 48.485L58.3286 36.5978C58.3326 36.5574 58.3349 36.5164 58.3349 36.4749C58.3349 36.3135 58.3031 36.1595 58.2474 36.0178L56.4625 23.2818C57.2984 22.6846 58.027 21.947 58.6133 21.1029ZM65.4587 13.4526C65.3223 14.9913 64.8533 16.179 64.0587 16.9934C63.1476 17.9274 61.7245 18.4582 59.8297 18.5772C60.0697 17.7722 60.2006 16.9207 60.2006 16.0387C60.2006 15.1395 60.0654 14.2715 59.8162 13.4526H65.4587ZM44.8999 16.0388C44.8999 12.5096 47.7712 9.63815 51.3006 9.63815C54.83 9.63815 57.7013 12.5096 57.7013 16.0388C57.7013 19.5681 54.83 22.4395 51.3006 22.4395C47.7712 22.4395 44.8999 19.5681 44.8999 16.0388ZM51.4529 56.9616H12.7475C9.66914 56.9616 7.1055 54.7234 6.59389 51.7892H12.218C12.9082 51.7892 13.4677 51.2296 13.4677 50.5396C13.4677 49.8495 12.9082 49.2899 12.218 49.2899H6.59389C7.1055 46.3559 9.66914 44.1176 12.7475 44.1176H51.4529C54.406 44.1176 56.8851 46.1774 57.534 48.9353L57.5837 49.2899H20.2945C19.6043 49.2899 19.0449 49.8495 19.0449 50.5396C19.0449 51.2296 19.6043 51.7892 20.2945 51.7892H57.6066C57.095 54.7235 54.5313 56.9616 51.4529 56.9616ZM54.8958 30.111H50.5758C49.8856 30.111 49.3262 30.6706 49.3262 31.3606C49.3262 32.0507 49.8856 32.6103 50.5758 32.6103H55.2461L55.6126 35.2254H50.5758C49.8856 35.2254 49.3262 35.785 49.3262 36.475C49.3262 37.1651 49.8856 37.7247 50.5758 37.7247H55.9629L56.7611 43.4196C55.2878 42.2912 53.4479 41.6185 51.4531 41.6185H45.1171L48.3791 24.4437C49.2949 24.763 50.2774 24.9387 51.3007 24.9387C52.2813 24.9387 53.2243 24.777 54.1072 24.4827L54.8958 30.111Z" fill="#5A2E91"/>
<path d="M17.2931 50.0611C17.1991 49.8336 17.0374 49.637 16.8332 49.5001C16.423 49.2212 15.855 49.2212 15.4448 49.5001C14.5257 50.1053 14.8138 51.5585 15.8947 51.7645C16.8511 51.974 17.6856 50.9596 17.2931 50.0611Z" fill="#5A2E91"/>
<path d="M50.32 16.0844C51.0101 16.0844 51.5696 15.5248 51.5696 14.8348C51.5696 14.4369 51.8933 14.1132 52.2912 14.1132C52.689 14.1132 53.0127 14.437 53.0127 14.8348C53.0127 15.5248 53.5722 16.0844 54.2623 16.0844C54.9525 16.0844 55.512 15.5248 55.512 14.8348C55.512 13.0588 54.0671 11.614 52.2912 11.614C50.5152 11.614 49.0703 13.0589 49.0703 14.8348C49.0703 15.5248 49.6299 16.0844 50.32 16.0844Z" fill="#5A2E91"/>
</g>
<defs>
<clipPath id="clip0">
<rect width="64" height="64" fill="white" transform="translate(4)"/>
</clipPath>
</defs>
</svg>

<svg width="68" height="73" fill="none" xmlns="http://www.w3.org/2000/svg"><path d="M64 64.155l-.035-.03.035-.04-.902-.763-6.306-5.8s-.111.115-.294.285l-.167.181c-1.438 1.33-6.048 5.179-11.458 5.254h-.35c-2.846-.306-5.622-1.822-8.438-4.627-4.675-4.676-9.877-7.2-15.474-7.536h-.466a20.487 20.487 0 00-2.533-.066c-8.429.342-14.69 5.942-16.817 8.1-.456.406-.73.697-.79.747l.03.03a.175.175 0 01-.035.045l.902.753 6.306 5.805.294-.29.167-.181c1.433-1.335 6.048-5.184 11.458-5.254h.344c2.852.306 5.622 1.822 8.439 4.626 4.68 4.657 9.872 7.181 15.47 7.527h.465c.842.075 1.688.096 2.533.066 8.428-.342 14.69-5.937 16.817-8.094.44-.422.719-.708.775-.768" fill="#EFC825"/><g clip-path="url(#clip0)" fill="#5A2E91"><path d="M58.613 21.103h.474c2.974-.02 5.249-.815 6.76-2.364 1.479-1.515 2.202-3.722 2.15-6.559a1.25 1.25 0 00-1.25-1.227h-8.149a8.894 8.894 0 00-7.297-3.814 8.847 8.847 0 00-4.59 1.277V5.79a1.25 1.25 0 00-2.5 0v3.107l-3.313-1.629a1.25 1.25 0 10-1.102 2.243l3.896 1.915a8.892 8.892 0 002.373 11.804l-3.492 18.39H12.748C7.924 41.618 4 45.542 4 50.365v.347c0 4.824 3.924 8.748 8.748 8.748h38.705c4.823 0 8.747-3.924 8.747-8.748v-.347c0-.646-.072-1.275-.205-1.881l-1.666-11.887a1.247 1.247 0 00-.082-.58l-1.785-12.736a8.965 8.965 0 002.151-2.18zm6.846-7.65c-.137 1.538-.606 2.726-1.4 3.54-.911.934-2.334 1.465-4.23 1.584a8.87 8.87 0 00-.013-5.124h5.643zm-20.56 2.586c0-3.53 2.872-6.4 6.402-6.4 3.529 0 6.4 2.87 6.4 6.4 0 3.53-2.871 6.4-6.4 6.4a6.407 6.407 0 01-6.401-6.4zm6.554 40.923H12.747c-3.078 0-5.641-2.239-6.153-5.173h5.624a1.25 1.25 0 000-2.5H6.594a6.256 6.256 0 016.154-5.171h38.705c2.953 0 5.432 2.06 6.081 4.817l.05.355h-37.29a1.25 1.25 0 000 2.5h37.313c-.512 2.934-3.076 5.172-6.154 5.172zm3.443-26.851h-4.32a1.25 1.25 0 000 2.5h4.67l.367 2.614h-5.037a1.25 1.25 0 000 2.5h5.387l.798 5.695a8.702 8.702 0 00-5.308-1.802h-6.336l3.262-17.174a8.856 8.856 0 005.728.039l.789 5.628z"/><path d="M17.293 50.061a1.256 1.256 0 00-.46-.56 1.257 1.257 0 00-1.388 0c-.92.604-.631 2.058.45 2.264.956.209 1.79-.805 1.398-1.704zM50.32 16.084c.69 0 1.25-.56 1.25-1.25a.722.722 0 011.443 0 1.25 1.25 0 002.499 0 3.224 3.224 0 00-3.22-3.22 3.225 3.225 0 00-3.222 3.22c0 .69.56 1.25 1.25 1.25z"/></g><defs><clipPath id="clip0"><path fill="#fff" transform="translate(4)" d="M0 0h64v64H0z"/></clipPath></defs></svg>
